X:1
T:I Wish That You Were Dead, Goodman
M:4/4
L:1/8
K:G
 D2| G2G-A B2d-B| B2 A2 A2 BA| G2G-A B2 d2| e2 A2 A2|B-c| d2 d2 d2B-d|\
 e2 f2 g2g-e|d-BA-GA-cB-A| G2 E2 E2||

